modules/coreui-icons-brand/icons/sketch.svg

<svg version="1.1" xmlns="http://www.w3.org/2000/svg" width="32" height="32" viewBox="0 0 32 32">
<title>sketch</title>
<path d="M1.719 10.137l-1.156 1.556h5.656l0.431-8.169zM24.769 2.856l-8.038-0.856 8.481 9.2zM7.012 13.644l-0.7-1.375h-5.694l14.056 16.356zM7.137 11.694h17.75l-8.869-9.631zM25.719 12.262l-8.369 16.363 14.050-16.356h-5.681zM25.962 4.313l-0.587-0.788 0.056 1.081 0.381 7.088h5.644zM7.094 5.844l-0.288 5.35 8.488-9.194-8.037 0.856zM25.075 12.262h-18.125l9.069 17.738z"></path>
</svg>

<svg xmlns="http://www.w3.org/2000/svg" width="32" height="32" viewBox="0 0 32 32"><path d="M1.719 10.137L.563 11.693h5.656l.431-8.169zm23.05-7.281L16.731 2l8.481 9.2zM7.012 13.644l-.7-1.375H.618l14.056 16.356zm.125-1.95h17.75l-8.869-9.631zm18.582.568L17.35 28.625 31.4 12.269h-5.681zm.243-7.949l-.587-.788.056 1.081.381 7.088h5.644zM7.094 5.844l-.288 5.35L15.294 2l-8.037.856zm17.981 6.418H6.95L16.019 30z"/></svg>
